X: 1
T: Jennifer's Jig
C: Drummond Cook
R: Jig
B: Tae Gar Ye Loup Book I
Z: arr. Terry Traub 4-15-02
M: 6/8
K: D
L: 1/8
F|: "D" A<d B A2 F|"D" A<d c B2 G| "Em" B<e d "A"cBc| "A" A<a g "D"fdB|\
  "D" A<d B A2 F|"D" A<d c B2 G| "Em" B<e d "A"cBA| "A" gfe "D"d2|
|: e |"Bm" f2 F FBd| "Bm" fbg fed| "A"e2E EAc| "A"eaf edc|\
  "Bm" d2B Bcd| "A"e2c cde| fef agf| efd cde :|
F|: "D" A<d B A2 F|"D" A<d c B2 G| "Em" B<e d "A"cBc| "A" A<a g "D"fdB|\
  "D" A<d B A2 F|"D" A<d c B2 G| "Em" B<e d "A"cBA| "A" gfe "D"d2|]
